X:1
T:That Irresistible Rag
T:Rag Two-Step
T:Lucy B. Phillips
T:Copyright 1912 by Chas. L. Johnson
T:Copyright 1912 by Chas. L. Johnson
T:Copyright 1912 by Chas. L. Johnson
Z:Copyright 1912 by Chas. L. Johnson
%%score { 1 | 2 }
L:1/8
Q:1/4=80
M:2/4
K:C
V:1 treble nm="Piano" snm="Pno."
V:2 bass 
V:1
!mf! G/^G/ |!<(! A/^G/A/B/ c/B/c/d/ | e/^d/e/f/ [cg][c^g] | [c^fa]2 [B=fb]2 | %4
 [cec'] z!<)!!f! [cec'] z |:!mf!{gab} c'/b/c'/g/- g2 |{ef^f} g/f/g/e/- e2 |{cd^d} e/d/e/c/- cB/A/ | %8
 G4 |{d^de} f/e/f/=d/- dB/A/ | G4 |{cd^d} e/^d/e/c/- cB/A/ | G4 |{gab} c'/b/c'/g/- g2 | %14
{ef^f} g/f/g/e/- e2 |{cd^d} e/d/e/c/- cB/A/ | G2- GG/^G/ | A/^G/A/B/ c/B/c/d/ | %18
 e/^d/e/f/ [cg][c^g] | [c^fa]2 [B=fb]2 | [cec']2- [cec'] z ::!f! z/ [Ge]d/ [Ae]/[Ad]/[Ac]/[Ad]/ | %22
 z/ [Ge][^F^d]/ [Ge]2 | z/ [Ge]d/ [Ge]/[Gd]/[Gc]/[Gd]/ | z [Bf]/e/ [Bf]2 | z c/d/ [Ge]/[Gd]/[Gc] | %26
 [^Fd][Fe]/[Fd]/- [Fd]/c/[FA] | [^Fd][Fe]/[Fd]/- [Fd]/c/[FA] | [=Fd][Ge]/[Fd]/- [Fd]/B/G | %29
 z/ [Ge]d/ [Ae]/[Ad]/[Ac]/[Ad]/ | z/ [Ge][^F^d]/ [Ge]2 | z/ [Ge]d/ [Ge]/[Gd]/[Gc]/[Gd]/ | %32
 z [Bf]/e/ [Bf]2 | z c/d/ [Ge]/[Gd]/[Gc] | [^Fd][Fe]/[Fd]/- [Fd]/c/[FA] | %35
 [=Fd][Ge]/[Fd]/- [Fd]/B/G |1 [Ec]G/A/ B/c/d/^d/ :|2 [Ec] z [cec'] z ||!mf!{gab} c'/b/c'/g/- g2 | %39
{ef^f} g/f/g/e/- e2 |{cd^d} e/d/e/c/- cB/A/ | G4 |{d^de} f/e/f/=d/- dB/A/ | G4 | %44
{cd^d} e/^d/e/c/- cB/A/ | G4 |{gab} c'/b/c'/g/- g2 |{ef^f} g/f/g/e/- e2 |{cd^d} e/d/e/c/- cB/A/ | %49
 G2- GG/^G/ | A/^G/A/B/ c/B/c/d/ | e/^d/e/f/ [cg][c^g] | [c^fa]2 [B=fb]2 | [cec'] z [cec'] z || %54
[K:F]"^Trio"!f! c2 d>A | c/B/G/E/- E/D/C | c2 d>A | c/B/G/E/- E/D/C | F/G/A/G/ F/A z/ | %59
 G/A/B/A/ G2 | G/A/=B/A/ G/B z/ | c/d/e/d/ c2 | c2 d>A | c/B/G/E/- E/D/C | c2 d>A | %65
 c/B/G/E/- E/D/C | F/G/A/G/ F/A z/ | G/A/B/A/ G2 | c/d/e/d/ c/e z/ | [Af][cc']/[cc']/ [cc'][cc'] |: %70
!ff! [cac']2 [dd']>[Aa] | [cc']/[Bb]/[Gg]/[Ee]/- [Ee]/[Dd]/[Cc] | [cac']2 [dd']>[Aa] | %73
 [cc']/[Bb]/[Gg]/[Ee]/- [Ee]/[Dd]/[Cc] | [Ff]/[Gg]/[Aa]/[Gg]/ [Ff]/[Aa] z/ | %75
 [Gg]/[Aa]/[Bb]/[Aa]/ [Gg]2 | [Gg]/[Aa]/[=B=b]/[Aa]/ [Gg]/[Bb] z/ | %77
 [cc']/[dd']/[ee']/[dd']/ [cc']2 | [cac']2 [dd']>[Aa] | [cc']/[Bb]/[Gg]/[Ee]/- [Ee]/[Dd]/[Cc] | %80
 [cac']2 [dd']>[Aa] | [cc']/[Bb]/[Gg]/[Ee]/- [Ee]/[Dd]/[Cc] | [Ff]/[Gg]/[Aa]/[Gg]/ [Ff]/[Aa] z/ | %83
 [Gg]/[Aa]/[Bb]/[Aa]/ [Gg]2 | [cc']/[dd']/[ee']/[dd']/ [cc']/[ee'] z/ |1 %85
 [ff'][cc']/[cc']/ [cc'][cc'] :|2 [faf'] z [faf'] z |] %87
V:2
 z | [F,,F,][A,CF] [A,,A,][_A,,_A,] | [G,,G,][G,CE] [E,,E,][_E,,_E,] | %3
 [D,,D,][D,^F,C] G,,[=F,G,B,] | [C,C][G,,G,] [C,,C,] z |: C,[G,CE] G,,[G,CE] | %6
 C,[G,CE] [G,CE][E,,E,] | C,[G,CE] G,,[G,CE] | C,[G,CE] [G,CE]!>![_E,,_E,] | %9
 [D,,D,][G,B,F] G,,[G,B,F] | G,,[G,B,F] [G,B,F]!>![^D,,^D,] | [E,,E,][G,CE] G,,[G,CE] | %12
 C,[G,CE] [G,CE]!>![^D,,^D,] | [E,,E,][G,CE] G,,[G,CE] | C,[G,CE] G,,[G,CE] | C,[G,CE] G,,[G,CE] | %16
 C,[G,CE] [G,CE] z | [F,,F,][A,CF] !>![A,,A,]!>![_A,,_A,] | [G,,G,][G,CE] !>![E,,E,]!>![_E,,_E,] | %19
 [D,,D,][D,^F,C] G,,[=F,G,B,] | [C,C][G,,G,] [C,,C,] z :: C,[G,CE] A,,[A,CE] | C,[G,CE] G,,[G,CE] | %23
 C,[G,CE] G,,[G,CE] | D,[G,B,F] G,,[G,B,F] | C,[G,CE] G,,[G,CE] | A,,[D,^F,C] D,,[D,F,C] | %27
 A,,[D,^F,C] D,,[D,F,C] | B,,[=F,G,B,] G,,[F,G,B,] | C,[G,CE] A,,[A,CE] | C,[G,CE] G,,[G,CE] | %31
 C,[G,CE] G,,[G,CE] | D,[G,B,F] G,,[G,B,F] | C,[G,CE] G,,[G,CE] | A,,[D,^F,C] D,,[D,F,C] | %35
 B,,[=F,G,B,] G,,[F,G,B,] |1 [C,G,] z z2 :|2 [C,G,] z [C,,C,] z || C,[G,CE] G,,[G,CE] | %39
 C,[G,CE] [G,CE][E,,E,] | C,[G,CE] G,,[G,CE] | C,[G,CE] [G,CE]!>![_E,,_E,] | %42
 [D,,D,][G,B,F] G,,[G,B,F] | G,,[G,B,F] [G,B,F]!>![^D,,^D,] | [E,,E,][G,CE] G,,[G,CE] | %45
 C,[G,CE] [G,CE]!>![^D,,^D,] | [E,,E,][G,CE] G,,[G,CE] | C,[G,CE] G,,[G,CE] | C,[G,CE] G,,[G,CE] | %49
 C,[G,CE] [G,CE] z | [F,,F,][A,CF] !>![A,,A,]!>![_A,,_A,] | [G,,G,][G,CE] !>![E,,E,]!>![_E,,_E,] | %52
 [D,,D,][D,^F,C] G,,[=F,G,B,] | [C,C][G,,G,] [C,,C,] z ||[K:F] F,[A,CF] ^F,[A,C_E] | %55
 G,[B,C] C,[E,B,] | F,[A,CF] ^F,[A,C_E] | G,[B,C] C,[E,B,] | F,[A,C] C,[A,C] | G,[B,D] D,[B,D] | %60
 D,[F,G,=B,] G,,[F,G,B,] | E,[_B,CE] [B,CE]!>!C, | F,[A,CF] ^F,[A,C_E] | G,[B,C] C,[E,B,] | %64
 F,[A,CF] ^F,[A,C_E] | G,[B,C] C,[E,B,] | F,[A,C] C,[A,C] | G,[B,D] D,[B,D] | E,[B,CE] C,[B,CE] | %69
 [F,,F,] z z2 |: F,[A,CF] ^F,[A,C_E] | G,[B,C] C,[E,B,] | F,[A,CF] ^F,[A,C_E] | G,[B,C] C,[E,B,] | %74
 F,[A,C] C,[A,C] | G,[B,D] D,[B,D] | D,[G,=B,F] G,,[G,B,F] | E,[_B,CE] C,[B,CE] | %78
 F,[A,CF] ^F,[A,C_E] | G,[B,C] C,[E,B,] | F,[A,CF] ^F,[A,C_E] | G,[B,C] C,[E,B,] | %82
 F,[A,C] C,[A,C] | G,[B,D] D,[B,D] | E,[B,CE] C,[B,CE] |1 [F,,F,] z z2 :|2 [F,,F,] z [F,,F,] z |] %87

